X:1
T:Salzburg (Hintze), 77.77 D
T:Salzburg (Hintze), 77.77 D
T:Jakob Hintze, 1678
T:Public Domain Courtesy of the Cyber Hymnal™
C:Jakob Hintze, 1678
Z:Public Domain
Z:Courtesy of the Cyber Hymnal™
%%score ( 1 2 ) ( 3 4 )
L:1/8
Q:1/4=110
M:4/4
K:D
V:1 treble 
V:2 treble 
V:3 bass 
V:4 bass 
V:1
 [DA]2 [Dd]2 [DA]2 [DB]2 | A3 z G [DF]4 | [DA]2 A2 G2 [DF]2 | [DE]2 [CE]2 D4 | %4
 [DA]2 [Dd]2 [DA]2 [DB]2 | A3 z G [DF]4 | [DA]2 A2 G2 [DF]2 | [DE]2 [CE]2 D4 | %8
 [CE]2 [CE]2 (F^G) [CA]2 | [FA]2 ^G2 [CA]4 | B3 z c [Fd]2 [Fd]2 | [Fc]2 c2 [DB]4 | %12
 [DF]2 [DF]2 [DB]2 [CA]2 | [DA]2 [D^G]2 [CA]4 | [DB]2 A2 G2 [DF]2 | [DE]2 [CE]2 D4 |] %16
V:2
 x8 | D2 D2 x5 | x2 (DC) (B,C) x2 | x4 D4 | x8 | D2 C2 x5 | x2 (DC) (B,C) x2 | x4 D4 | x4 D2 x2 | %9
 x2 (ED) x4 | (EF) G2 x5 | x2 (FE) x4 | x8 | x8 | x2 (DC) (B,C) x2 | x4 D4 |] %16
V:3
 [D,F,]2 (F,G,) [F,,A,]2 (G,F,) | (E,D,) [A,,E,]2 D,4 x | [D,F,]2 [D,F,]2 [E,G,]2 [F,A,]2 | %3
 [G,B,]2 A,2 [D,F,]4 | [D,F,]2 (F,G,) [F,,A,]2 (G,F,) | (E,D,) [A,,E,]2 D,4 x | %6
 [D,F,]2 [D,F,]2 [E,G,]2 [F,A,]2 | [G,B,]2 A,2 [D,F,]4 | [A,,A,]2 [A,,A,]2 [D,A,]2 A,2 | %9
 [D,B,]2 [E,B,]2 [A,,A,]4 | G,3 z A, B,2 B,2 | [F,B,]2 [F,^A,]2 [B,,B,]4 | %12
 [D,A,]2 [D,A,]2 (G,F,) [A,,E,]2 | (D,F,) (E,D,) [A,,E,]4 | [G,,G,]2 [D,F,]2 [E,G,]2 [F,A,]2 | %15
 [G,B,]2 A,2 [D,F,]4 |] %16
V:4
 x2 B,,2 x G,,2 x | A,,2 x D,4 x2 | x8 | x2 A,2 x4 | x2 B,,2 x G,,2 x | A,,2 x D,4 x2 | x8 | %7
 x2 A,2 x4 | x6 (F,E,) | x8 | E,2 E,2 (B,,C,) (D,E,) x | x8 | x4 G,,2 x2 | B,,2 B,,2 x4 | x8 | %15
 x2 A,2 x4 |] %16

